!!!!SEGMENT: pl-sa--549-a-ix-29--016_anonim--krakowiak.krn
!!!cenid: 18xx:471
!!!COM: Anonim
!!!COM-rismID: pe30004985
!!!CDT:
!!!CNT:
!!!OTL: Krakowiak
!!!PDT:
!!!AGN: Secular; Krakowiak
!!!SMS-siglum: PL-SA
!!!SMS-shelfmark: 549/A IX 29
!!!SMS-shelfwork: 017 W
!!!SMS-variant:
!!!SMS-altvar:
!!!NIFC-rismSourceID: 1001068434
!!!NIFC-rismChildID: 1001068434
!!!NIFC-islandoraID: none
!!!URL-pdf-islandora:
!!!URL-scan: https://bc.bdsandomierz.pl/dlibra/publication/1441/edition/1409/content @EN{Scan in the Sandomierz Diocese Digital Library} @PL{Skany w portalu Cyfrowa Biblioteka Diecezjalna w Sandomierzu}
!!!ONB-nifc: Str. 13, s. 1-2
!!!AIN: 2 piano
!!!key: D
**kern	**kern	**dynam
*part2	*part1	*part1
*staff2	*staff1	*
*I"[Pianoforte]	*I"[Pianoforte]	*
*Ipiano	*Ipiano	*
*ICklav	*ICklav	*
*clefF4	*clefG2	*
*k[f#c#]	*k[f#c#]	*
*D:	*D:	*
*M2/4	*M2/4	*
=1	=1	=1
*clefG2	*	*
*2\right	*2\right	*2\right
!	!LO:TX:a:t=P:problem=metrum z kreską ułamkową	!
!	!LO:TX:a:t=|&colon; Allegro, &colon;| wesoło, żywo,	!
8f#L 8d/	8.ff#L 8.dd\	p
8a/J	.	.
.	16ggJk 16ee\	.
8aL 8f# 8d/	8aaL 8ff#\	.
8a/J	8aaJ 8ff#\	.
=2	=2	=2
8f#L 8d/	8aaL 8ff#\	.
8a/J	16aaL 16ff#\	.
.	16ggJJ 16ee\	.
8f#L 8d/	8ff#L 8dd\	.
8a/J	8ff#J 8dd\	.
=3	=3	=3
*rep	*	*
8f#L 8d/	8.ff#L 8.dd\	.
8a/J	.	.
.	16ggJk 16ee\	.
8f#L 8d/	8aaL 8ff#\	.
8a/J	8aaJ 8ff#\	.
*Xrep	*	*
=4	=4	=4
*rep	*	*
8f#L 8d/	4aa 4ff#\	.
8a/J	.	.
8f#L 8d/	4ff# 4dd\	.
8a/J	.	.
*Xrep	*	*
=5	=5	=5
*tremolo	*	*
8f#L 8d/	8.ff#L 8.dd\	.
8a/	.	.
.	16ggJk 16ee\	.
8f# 8d/	8aaL 8ff#\	.
8a/J	8aaJ 8ff#\	.
*Xtremolo	*	*
=6	=6	=6
8f#L 8d/	16aaLL 16ff#\	.
.	16bb 16gg\	.
8a/J	16aa 16ff#\	.
.	16ggJJ 16ee\	.
*rep	*	*
8f#L 8d/	8ff#L 8dd\	.
8a/J	8ff#J 8dd\	.
*Xrep	*	*
=7	=7	=7
8f#L 8d/	8ff#L 8dd\	.
8a/J	8aa 8ff#\	.
8eL 8A/	8gg 8ee\	.
8a/J	8eeJ 8cc#\	.
=8	=8	=8
8f#L 8d/	4dd\	.
8a/J	.	.
4f# 4d/	4dd\	.
*clefF4	*	*
=9||	=9||	=9||
8F#L 8D\	8ddd 8ff#\	.
8A\	4ddd\	.
8F# 8D\	.	.
8A\J	8eee\	.
=10	=10	=10
*rep	*	*
8F#L 8D\	16fff#\LL	.
.	16eee\	.
8A\J	16ddd\	.
.	16ccc#\JJ	.
*Xrep	*	*
!!linebreak:original
8F#L 8D\	16bb\LL	.
.	16aa\	.
8A\J	16gg\	.
.	16ff#\JJ	.
=11	=11	=11
*rep	*	*
8F#L 8D\	8ddd 8ff#\	.
8A\	4ddd 4ff#\	.
8F# 8D\	.	.
8A\J	8eee 8gg\	.
*Xrep	*	*
=12	=12	=12
*	*^	*
8D\L	4fff#/	4aa\	.
8A\	.	.	.
8F#\	4ddd/	4ff#\	.
8A\J	.	.	.
*	*v	*v	*
!LO:TX:t=X	!LO:TX:t=X	!
=13	=13	=13
!!LO:TX:t=P:problem:t. 13 wpisany na końcu utworu
8F#L 8D\	8ddd 8ff#\	.
8A\J	4ddd\	.
8F#L 8D\	.	.
8A\J	8eee\	.
=14	=14	=14
*tremolo	*	*
8F#L 8D\	16fff#\LL	.
.	16eee\	.
8A\	16ddd\	.
.	16ccc#\JJ	.
8F# 8D\	16bb\LL	.
.	16aa\	.
8A\J	16gg\	.
.	16ff#\JJ	.
*Xtremolo	*	*
=15	=15	=15
8F#L 8D\	8dddL 8ff#\	.
8A\J	8ddd\J	.
8GL 8C#\	16fff#\LL	.
.	16eee\	.
8A\J	16ddd\	.
.	16eee\JJ	.
=16	=16	=16
2F# 2D\	4ddd\	.
.	4ddd\	.
==	==	==
*-	*-	*-
!!!system-decoration: {(s1,s2)}
!!!RDF**kern: > = above
!!!RDF**kern: < = below
!!!ENC: Katarzyna Serwa
!!!END: 2022-01-05
!!!ENC: Marta Chmielewska
!!!END: 2020-06-17
!!!YEC: Copyright 2022 Narodowy Instytut Fryderyka Chopina (https://polishscores.org)
!!!YEM: License CC-BY-4.0 (https://creativecommons.org/licenses/by/4.0)
